src/icons/svg/task-center.svg

<?xml version="1.0" encoding="UTF-8"?>
<svg width="40px" height="40px" viewBox="0 0 40 40" version="1.1" xmlns="http://www.w3.org/2000/svg"
>
    <path d="M34.3219265,0.253485432 L13.8403042,0.253485432 C13.0291508,0.253485432 12.2179974,1.0646388 12.2179975,1.87579217 C12.2179975,2.68694553 13.0291508,3.4980989 13.8403042,3.49809886 L34.3219265,3.49809886 C35.7414448,3.49809886 36.7553865,4.51204054 36.7553866,5.93155895 L36.7553866,34.3219265 C36.7553866,35.7414448 35.7414449,36.7553865 34.3219265,36.7553866 L5.93155895,36.7553866 C4.51204058,36.7553866 3.4980989,35.7414449 3.49809886,34.3219265 L3.49809886,13.4347275 C3.49809886,12.6235741 2.68694549,11.8124208 1.87579217,11.8124208 C1.06463884,11.8124208 0.253485432,12.6235742 0.253485432,13.4347275 L0.253485432,34.3219265 C0.253485432,37.3637516 2.88973385,40 5.93155895,40 L34.3219265,40 C37.3637516,40 40,37.3637516 40,34.3219265 L40,5.93155895 C40,2.68694553 37.3637516,0.253485432 34.3219265,0.253485432 Z"
          id="路径"></path>
    <path d="M31.4828897,24.1825095 C32.4968314,24.1825095 33.1051965,23.3713562 33.1051965,22.5602028 C33.1051965,21.7490494 32.2940431,20.9378961 31.4828897,20.9378961 L25.1964512,20.9378961 C24.3852978,20.9378961 23.5741445,21.7490494 23.5741445,22.5602028 C23.5741445,23.3713562 24.3852978,24.1825095 25.1964512,24.1825095 L31.4828897,24.1825095 L31.4828897,24.1825095 Z M16.679341,19.112801 C17.287706,19.721166 18.3016477,19.721166 19.112801,19.112801 C19.721166,18.504436 19.721166,17.4904943 19.112801,16.8821293 L2.68694549,0.456273752 C2.07858049,-0.152091251 1.06463876,-0.152091251 0.456273752,0.456273752 C-0.152091251,1.06463876 -0.152091251,2.07858049 0.456273752,2.68694549 L16.679341,19.112801 Z M6.74271228,30.0633714 C6.74271228,30.8745247 7.55386564,31.6856781 8.36501901,31.6856781 L31.4828897,31.6856781 C32.4968314,31.6856781 33.1051965,31.0773131 33.1051965,30.0633714 C33.1051965,29.252218 32.2940431,28.4410646 31.4828897,28.4410646 L8.36501901,28.4410646 C7.55386564,28.4410646 6.74271228,29.252218 6.74271228,30.0633714 Z"
          id="形状"></path>
</svg>

<svg width="40" height="40" xmlns="http://www.w3.org/2000/svg"><path d="M34.322.253H13.84c-.81 0-1.622.812-1.622 1.623 0 .81.811 1.622 1.622 1.622h20.482c1.42 0 2.433 1.014 2.433 2.434v28.39c0 1.42-1.014 2.433-2.433 2.433H5.932c-1.42 0-2.434-1.014-2.434-2.433V13.435c0-.811-.811-1.623-1.622-1.623s-1.623.812-1.623 1.623v20.887C.253 37.364 2.89 40 5.932 40h28.39C37.364 40 40 37.364 40 34.322V5.932C40 2.687 37.364.253 34.322.253z"/><path d="M31.483 24.183c1.014 0 1.622-.812 1.622-1.623 0-.811-.811-1.622-1.622-1.622h-6.287c-.81 0-1.622.811-1.622 1.622s.811 1.623 1.622 1.623h6.287zm-14.804-5.07c.609.608 1.623.608 2.434 0a1.591 1.591 0 0 0 0-2.23L2.687.455a1.591 1.591 0 0 0-2.23 0 1.591 1.591 0 0 0 0 2.23l16.222 16.427zm-9.936 10.95c0 .812.81 1.623 1.622 1.623h23.118c1.014 0 1.622-.609 1.622-1.623 0-.81-.811-1.622-1.622-1.622H8.365c-.811 0-1.622.811-1.622 1.622z"/></svg>
